X: 234
T: MISS TINKER
C: ARCHd DUFF
R: Reel
B: Glen Collection p.23 #4
Z: 2011 John Chambers <jc:trillian.mit.edu>
M: C|
L: 1/8
V: 1 middle=B clef=treble
V: 2 middle=d clef=bass
%%score {1 | 2}
K: F
%
V: 1
a |\
f2cf dfcA | BdcA Ggga | f2cf dfcA | BdcA F/F/F F :|
B |\
A/B/c Fc AFcA | BdcA G/G/G GB | A/B/c Fc AFcA | BdcA F/F/F FB |
A/B/c Fc fdcA | BGcA Gggb | afgb afge | fdcA F/F/F F |]
%
V: 2
z |\
[f2F2][a2f2] [b2f2][a2f2] | [g2e2c2][a2f2c2] [b2e2c2][b2e2c2] |\
[a2f2][a2f2] [b2f2][a2f2] | [g2e2c2][a2f2c2] [a2f2][fF] :|
z |\
f2[c'2a2] [c'2f2][c'2f2] | [c'2e2][c'2f2] [c'2e2][c'2e2] |\
F2[c'2a2] [c'2f2][c'2f2] | [c'2e2][c'2e2] [a2f2][f2F2] |
F2[a2f2] [b2f2][a2f2] | [c'2e2][c'2f2] [c'2e2][c'2e2] |\
[f2F2][e2c2] [f2c2] [b2c2] | [a2f2][g2e2c2] [a2f2][fcAF] |]
